google-home.svg

<svg fill="currentColor" viewBox="0 0 24 24"><path d="M8.06 7.78c-.56 0-.89-.05-.98-.14l-.42 6.09c.53.32 1.22.57 2.06.77.84.21 2.06.27 3.66.17 1.59-.09 3.25-.44 4.96-1.03l-.79-9.42c-.88.87-2.17 1.69-3.89 2.44-1.53.65-2.85 1.03-3.94 1.12zm-.09-2.44c-.69.6-.97 1-.84 1.22.09.22.57.28 1.45.19 1.09-.09 2.33-.44 3.7-1.03.94-.41 1.75-.84 2.44-1.31s1.16-.86 1.41-1.18c.25-.31.34-.53.28-.65-.07-.16-.38-.24-.94-.24-1.13 0-2.53.36-4.22 1.08-1.44.63-2.53 1.27-3.28 1.92m9.37-3.14c.07.13.1.27.1.43L18.61 17c0 1.73-.61 3.09-1.78 4.07-1.19.98-2.8 1.48-4.83 1.48-2 0-3.6-.51-4.8-1.55-1.2-1-1.81-2.36-1.81-4.08l.7-10.45q0-.375.33-.84c.22-.32.42-.57.61-.75l.33-.29c.97-.81 2.14-1.51 3.52-2.09.93-.42 1.85-.73 2.74-.93.88-.2 1.68-.27 2.38-.19.71.08 1.16.35 1.34.82"/></svg>

<svg  viewBox="0 0 24 24" fill="currentColor"><path  d="M8.06,7.78C7.5,7.78 7.17,7.73 7.08,7.64L6.66,13.73C7.19,14.05 7.88,14.3 8.72,14.5C9.56,14.71 10.78,14.77 12.38,14.67C13.97,14.58 15.63,14.23 17.34,13.64L16.55,4.22C15.67,5.09 14.38,5.91 12.66,6.66C11.13,7.31 9.81,7.69 8.72,7.78H8.06M7.97,5.34C7.28,5.94 7,6.34 7.13,6.56C7.22,6.78 7.7,6.84 8.58,6.75C9.67,6.66 10.91,6.31 12.28,5.72C13.22,5.31 14.03,4.88 14.72,4.41C15.41,3.94 15.88,3.55 16.13,3.23C16.38,2.92 16.47,2.7 16.41,2.58C16.34,2.42 16.03,2.34 15.47,2.34C14.34,2.34 12.94,2.7 11.25,3.42C9.81,4.05 8.72,4.69 7.97,5.34M17.34,2.2C17.41,2.33 17.44,2.47 17.44,2.63L18.61,17C18.61,18.73 18,20.09 16.83,21.07C15.64,22.05 14.03,22.55 12,22.55C10,22.55 8.4,22.04 7.2,21C6,20 5.39,18.64 5.39,16.92L6.09,6.47C6.09,6.22 6.2,5.94 6.42,5.63C6.64,5.31 6.84,5.06 7.03,4.88L7.36,4.59C8.33,3.78 9.5,3.08 10.88,2.5C11.81,2.08 12.73,1.77 13.62,1.57C14.5,1.37 15.3,1.3 16,1.38C16.71,1.46 17.16,1.73 17.34,2.2Z"/></svg>
